X:7855
T:Brudemarsj fra Vefsn
T:Wedding march from Vefsn
C:anon.
O:Norway
A:Vefsn
R:Wedding march
Z:Transcribed by Frank Nordberg - http://www.musicaviva.com
F:http://abc.musicaviva.com/tunes/norway/brudemarsj-vefsn/brudemarsj-vefsn-1.abc
M:2/4
L:1/8
K:D
A|"D"d2 d(c/d/)|"A"e2 ed|"A7"ce ag|("D"gf) fA|
"D"d2 d(c/d/)|"A"e2 ed|"A7"cA Bc|"D"d3:|
f|:"D"a2 "A/C#"a(^g/a/)|"Bm7"ba gf|"Em"g2 "Em/D"g(f/g/)|"A/C#"ag fe|
"D"f2 f(e/f/)|"G"gf ed|"A"cA Bc|[1"D"de fg:|[2"D"d3|]
W:
W:
W:  From Musica Viva - http://www.musicaviva.com
W:  the Internet center for free sheet music downloads.
